X:108
T:Bantry Bay   Hornpipe   Allan's #108  pp27
C:Trad/Anon
B:Allan's Irish Fiddler (pub. Mozart Allen,  Glascow) date unknown
Z:FROM ALLAN'S TO NOTEWORTHY, FROM NOTEWORTHY TO ABC, MIDI AND .TXT BY VINCE
BRENNAN Dec. 2002 (HTTP://WWW.SOSYOURMOM.COM)
I:abc2nwc
M:4/4
L:1/8
K:G
(G3/2A/2)|B3/2A/2B3/2G/2 A3/2F/2  3(DEF)|G2{A}G3/2F/2 G2A3/2G/2|
E3/2A/2A3/2B/2 c3/2B/2A3/2G/2|3(ABA) G3/2B/2 A2A3/2B/2|c3/2e/2c3/2A/2 B3/2d/2B3/2G/2|
A3/2B/2A3/2G/2 E2D2|B3/2A/2B3/2G/2 A3/2F/2  3(DEF)|G2{A}G3/2F/2 G2:|
|:(B3/2c/2)|d3/2B/2G3/2B/2 d3/2B/2G3/2B/2|e2e2(e2e3/2)f/2|
g2e3/2d/2 B3/2G/2B3/2d/2|3(gag) f3/2a/2 g2e3/2f/2|g3/2b/2g3/2f/2 e3/2f/2e3/2d/2|
B3/2A/2G3/2B/2 A3/2F/2 D2|B3/2A/2B3/2G/2 A3/2F/2  3(DEF)|G2{A}G3/2F/2 G2:|
